;FLAVOR:Marlin
;TIME:2504
;Filament used: 4.38535m
;Layer height: 0.3
;MINX:83.6
;MINY:43.6
;MINZ:0.3
;MAXX:126.4
;MAXY:166.4
;MAXZ:4.8
;Generated with Cura_SteamEngine 4.5.0
M140 S60
M105
M190 S60
M104 S200
M105
M109 S200
M82 ;absolute extrusion mode
G21 ;metric values
G90 ;absolute positioning
M82 ;set extruder to absolute mode
M107 ;start with the fan off
G28 X0 Y0 ;move X/Y to min endstops
G28 Z0 ;move Z to min endstops
G1 Z15.0 F100 ;move the platform down 15mm
G92 E0 ;zero the extruded length
G1 F200 E3 ;extrude 3mm of feed stock
G92 E0 ;zero the extruded length again
G1 F100
G0 Y20 F100
M117 Printing...
G5
G92 E0
G92 E0
G1 F2400 E-6
;LAYER_COUNT:16
;LAYER:0
M106 S255
M204 S3000
M205 X10 Y10
G1 F600 Z0.375
G0 F3000 X84.277 Y47.163 Z0.375
M204 S1800
M205 X8 Y8
;TYPE:SKIRT
G1 F600 Z0.3
G1 F2400 E0
G1 X84.63 Y46.541 E0.04995
G1 X85.05 Y45.963 E0.09986
G1 X85.533 Y45.435 E0.14984
G1 X86.071 Y44.964 E0.19978
G1 X86.659 Y44.556 E0.24977
G1 X87.288 Y44.216 E0.29971
G1 X87.952 Y43.949 E0.3497
G1 X88.641 Y43.757 E0.39966
G1 X89.347 Y43.643 E0.44961
G1 X90.151 Y43.603 E0.50583
G1 X119.293 Y43.6 E2.54129
G1 X120.083 Y43.611 E2.59648
G1 X120.796 Y43.661 E2.6464
G1 X121.5 Y43.79 E2.69639
G1 X122.184 Y43.998 E2.74632
G1 X122.841 Y44.28 E2.79626
G1 X123.463 Y44.634 E2.84625
G1 X124.041 Y45.055 E2.89619
G1 X124.569 Y45.538 E2.94618
G1 X125.039 Y46.076 E2.99607
G1 X125.447 Y46.664 E3.04606
G1 X125.786 Y47.294 E3.09603
G1 X126.053 Y47.957 E3.14595
G1 X126.244 Y48.647 E3.19596
G1 X126.357 Y49.353 E3.2459
G1 X126.397 Y50.15 E3.30163
G1 X126.4 Y159.343 E10.92836
G1 X126.391 Y160.07 E10.97914
G1 X126.342 Y160.784 E11.02913
G1 X126.214 Y161.488 E11.07911
G1 X126.008 Y162.173 E11.12907
G1 X125.727 Y162.83 E11.17898
G1 X125.374 Y163.453 E11.22899
G1 X124.954 Y164.032 E11.27895
G1 X124.472 Y164.56 E11.32889
G1 X123.935 Y165.032 E11.37882
G1 X123.347 Y165.44 E11.42881
G1 X122.718 Y165.781 E11.47879
G1 X122.055 Y166.049 E11.52873
G1 X121.366 Y166.241 E11.57869
G1 X120.66 Y166.356 E11.62865
G1 X119.849 Y166.397 E11.68537
G1 X90.707 Y166.4 E13.72083
G1 X89.926 Y166.39 E13.77539
G1 X89.213 Y166.341 E13.8253
G1 X88.509 Y166.213 E13.87528
G1 X87.824 Y166.007 E13.92524
G1 X87.167 Y165.725 E13.97518
G1 X86.545 Y165.372 E14.02513
G1 X85.966 Y164.952 E14.07509
G1 X85.437 Y164.47 E14.12508
G1 X84.966 Y163.932 E14.17502
G1 X84.558 Y163.345 E14.22495
G1 X84.218 Y162.715 E14.27496
G1 X83.95 Y162.052 E14.32491
G1 X83.758 Y161.363 E14.37486
G1 X83.644 Y160.657 E14.42481
G1 X83.602 Y159.831 E14.48258
G1 X83.6 Y50.674 E22.10679
G1 X83.61 Y49.922 E22.15932
G1 X83.659 Y49.209 E22.20924
G1 X83.788 Y48.505 E22.25923
G1 X83.995 Y47.821 E22.30914
G1 X84.277 Y47.163 E22.35915
M204 S3000
M205 X10 Y10
G0 F3000 X84.834 Y47.303
M204 S1800
M205 X8 Y8
G1 F2400 X85.185 Y46.717 E22.40686
G1 X85.603 Y46.176 E22.45461
G1 X86.08 Y45.688 E22.50227
G1 X86.612 Y45.259 E22.55001
G1 X87.19 Y44.894 E22.59775
G1 X87.807 Y44.6 E22.64549
G1 X88.453 Y44.38 E22.69316
G1 X89.121 Y44.237 E22.74087
G1 X89.845 Y44.171 E22.79165
G1 X119.293 Y44.16 E24.84848
G1 X120.075 Y44.171 E24.90311
G1 X120.756 Y44.22 E24.9508
G1 X121.427 Y44.349 E24.99852
G1 X122.078 Y44.556 E25.04623
G1 X122.701 Y44.837 E25.09397
G1 X123.287 Y45.189 E25.14172
G1 X123.827 Y45.607 E25.18941
G1 X124.315 Y46.085 E25.23712
G1 X124.744 Y46.617 E25.28486
G1 X125.108 Y47.195 E25.33257
G1 X125.402 Y47.812 E25.38031
G1 X125.621 Y48.459 E25.42802
G1 X125.764 Y49.127 E25.47573
G1 X125.829 Y49.846 E25.52615
G1 X125.84 Y159.336 E33.17362
G1 X125.831 Y160.063 E33.22441
G1 X125.782 Y160.745 E33.27216
G1 X125.654 Y161.416 E33.31988
G1 X125.449 Y162.068 E33.36761
G1 X125.169 Y162.691 E33.41532
G1 X124.819 Y163.277 E33.46299
G1 X124.402 Y163.819 E33.51076
G1 X123.925 Y164.308 E33.55847
G1 X123.394 Y164.737 E33.60615
G1 X122.816 Y165.102 E33.6539
G1 X122.2 Y165.397 E33.7016
G1 X121.553 Y165.618 E33.74936
G1 X120.885 Y165.762 E33.79709
G1 X120.155 Y165.829 E33.84829
G1 X90.632 Y165.84 E35.91036
G1 X89.934 Y165.831 E35.95912
G1 X89.252 Y165.782 E36.00688
G1 X88.581 Y165.654 E36.05459
G1 X87.93 Y165.448 E36.10228
G1 X87.306 Y165.168 E36.15005
G1 X86.72 Y164.817 E36.19776
G1 X86.179 Y164.4 E36.24547
G1 X85.69 Y163.922 E36.29323
G1 X85.261 Y163.391 E36.34091
G1 X84.896 Y162.813 E36.38866
G1 X84.602 Y162.197 E36.43633
G1 X84.381 Y161.55 E36.48409
G1 X84.237 Y160.882 E36.53182
G1 X84.171 Y160.149 E36.58322
G1 X84.16 Y50.674 E44.22964
G1 X84.17 Y49.93 E44.28161
G1 X84.219 Y49.249 E44.3293
G1 X84.347 Y48.577 E44.37708
G1 X84.553 Y47.926 E44.42478
G1 X84.834 Y47.303 E44.47251
M204 S3000
M205 X10 Y10
G0 F3000 X85.391 Y47.45
M204 S1800
M205 X8 Y8
G1 F2400 X85.74 Y46.902 E44.51789
G1 X86.154 Y46.401 E44.56328
G1 X86.626 Y45.955 E44.60864
G1 X87.149 Y45.571 E44.65396
G1 X87.716 Y45.253 E44.69937
G1 X88.317 Y45.007 E44.74472
G1 X88.944 Y44.837 E44.7901
G1 X89.861 Y44.731 E44.85457
G1 X119.293 Y44.72 E46.91029
G1 X120.067 Y44.731 E46.96436
G1 X120.714 Y44.78 E47.00968
G1 X121.351 Y44.908 E47.05506
G1 X121.967 Y45.114 E47.10043
G1 X122.554 Y45.394 E47.14585
G1 X123.101 Y45.743 E47.19117
G1 X123.602 Y46.157 E47.23657
G1 X124.047 Y46.63 E47.28193
G1 X124.432 Y47.154 E47.32734
G1 X124.749 Y47.721 E47.37271
G1 X124.994 Y48.322 E47.41805
G1 X125.163 Y48.949 E47.4634
G1 X125.269 Y49.862 E47.5276
G1 X125.28 Y159.329 E55.17346
G1 X125.271 Y160.056 E55.22425
G1 X125.223 Y160.704 E55.26963
G1 X125.095 Y161.341 E55.31501
G1 X124.891 Y161.958 E55.3604
G1 X124.612 Y162.545 E55.4058
G1 X124.264 Y163.093 E55.45114
G1 X123.851 Y163.594 E55.49649
G1 X123.379 Y164.041 E55.54189
G1 X122.856 Y164.426 E55.58725
G1 X122.29 Y164.744 E55.6326
G1 X121.688 Y164.991 E55.67805
G1 X121.062 Y165.161 E55.72335
G1 X120.139 Y165.269 E55.78826
G1 X90.639 Y165.28 E57.84873
G1 X89.941 Y165.271 E57.89748
G1 X89.293 Y165.222 E57.94287
G1 X88.656 Y165.095 E57.98824
G1 X88.04 Y164.89 E58.03359
G1 X87.453 Y164.611 E58.07898
G1 X86.905 Y164.262 E58.12436
G1 X86.404 Y163.849 E58.16971
G1 X85.957 Y163.377 E58.21512
G1 X85.572 Y162.854 E58.26048
G1 X85.254 Y162.287 E58.30588
G1 X85.008 Y161.686 E58.35124
G1 X84.838 Y161.059 E58.39662
G1 X84.731 Y160.134 E58.46165
G1 X84.72 Y50.603 E66.11199
G1 X84.729 Y49.938 E66.15844
G1 X84.778 Y49.29 E66.20383
G1 X84.906 Y48.653 E66.24921
G1 X85.111 Y48.036 E66.29462
G1 X85.391 Y47.45 E66.33998
M204 S3000
M205 X10 Y10
G1 F2400 E60.33998
;MESH:thread_release_channel_0.stl
G0 F3000 X89.335 Y50.854
G0 X90.854 Y50.854
G0 X111.333 Y143.71
G0 X111.9 Y147.908
M204 S1800
M205 X8 Y8
;TYPE:WALL-INNER
G1 F2400 E66.33998
G1 F1800 X111.898 Y144.363 E66.58759
G1 X111.851 Y143.644 E66.63792
G1 X111.69 Y142.797 E66.69813
G1 X111.424 Y141.973 E66.75861
G1 X111.056 Y141.185 E66.81936
G1 X110.592 Y140.454 E66.87983
G1 X110.042 Y139.786 E66.94027
G1 X109.401 Y139.182 E67.00179
G1 X108.699 Y138.671 E67.06243
G1 X107.939 Y138.253 E67.12301
G1 X107.134 Y137.934 E67.18349
G1 X106.293 Y137.719 E67.24412
G1 X105.432 Y137.611 E67.30473
G1 X104.568 Y137.611 E67.36508
G1 X103.707 Y137.719 E67.42569
G1 X102.866 Y137.934 E67.48632
G1 X102.061 Y138.253 E67.5468
G1 X101.301 Y138.671 E67.60738
G1 X100.599 Y139.182 E67.66803
G1 X99.969 Y139.775 E67.72846
G1 X99.424 Y140.431 E67.78803
G1 X98.958 Y141.162 E67.84858
G1 X98.588 Y141.946 E67.90913
G1 X98.319 Y142.771 E67.96974
G1 X98.156 Y143.617 E68.02991
G1 X98.102 Y144.358 E68.08181
G1 X98.1 Y146.084 E68.20236
G1 X98.116 Y147.907 E68.3297
G1 X98.51 Y147.913 E68.35722
G1 X98.748 Y148.517 E68.40256
G1 X99.165 Y149.277 E68.46311
G1 X99.672 Y149.979 E68.5236
G1 X100.265 Y150.614 E68.58428
G1 X100.942 Y151.174 E68.64565
G1 X101.675 Y151.639 E68.70628
G1 X102.458 Y152.008 E68.76674
G1 X103.284 Y152.277 E68.82741
G1 X104.136 Y152.438 E68.88797
G1 X105 Y152.493 E68.94844
G1 X105.864 Y152.438 E69.00891
G1 X106.716 Y152.277 E69.06947
G1 X107.542 Y152.008 E69.13015
G1 X108.325 Y151.639 E69.19061
G1 X109.058 Y151.174 E69.25124
G1 X109.725 Y150.622 E69.31171
G1 X110.319 Y149.989 E69.37234
G1 X110.829 Y149.288 E69.43289
G1 X111.247 Y148.528 E69.49347
G1 X111.49 Y147.915 E69.53953
G1 X111.9 Y147.908 E69.56817
M204 S3000
M205 X10 Y10
G0 F3000 X108.751 Y150.752
G0 X91.4 Y158.6
M204 S1800
M205 X8 Y8
G1 F1800 X91.4 Y51.4 E77.05569
G1 X118.6 Y51.4 E78.95551
G1 X118.6 Y158.6 E86.44303
G1 X91.4 Y158.6 E88.34285
M204 S3000
M205 X10 Y10
G0 F3000 X90.84 Y159.16
M204 S1800
M205 X8 Y8
G1 F1800 X90.84 Y50.84 E95.9086
G1 X119.16 Y50.84 E97.88665
G1 X119.16 Y159.16 E105.4524
G1 X90.84 Y159.16 E107.43044
M204 S3000
M205 X10 Y10
G0 F3000 X90.91 Y159.09
G0 X108.074 Y151.182
G0 X108.751 Y150.752
G0 X109.368 Y150.242
G0 X109.917 Y149.656
G0 X111.411 Y147.427
G0 X111.34 Y147.357
M204 S1800
M205 X8 Y8
G1 F1800 X111.338 Y144.382 E107.63824
G1 X111.294 Y143.715 E107.68493
G1 X111.146 Y142.936 E107.74031
G1 X110.902 Y142.178 E107.79593
G1 X110.564 Y141.455 E107.85167
G1 X110.138 Y140.783 E107.90725
G1 X109.632 Y140.169 E107.96282
G1 X109.043 Y139.614 E108.01934
G1 X108.398 Y139.145 E108.07505
G1 X107.7 Y138.761 E108.13069
G1 X106.961 Y138.468 E108.18621
G1 X106.188 Y138.27 E108.24195
G1 X105.397 Y138.171 E108.29763
G1 X104.603 Y138.171 E108.35309
G1 X103.812 Y138.27 E108.40876
G1 X103.039 Y138.468 E108.4645
G1 X102.3 Y138.761 E108.52002
G1 X101.602 Y139.145 E108.57567
G1 X100.957 Y139.614 E108.63137
G1 X100.378 Y140.159 E108.68691
G1 X99.877 Y140.762 E108.74167
G1 X99.449 Y141.433 E108.79725
G1 X99.109 Y142.153 E108.85287
G1 X98.862 Y142.911 E108.90855
G1 X98.712 Y143.69 E108.96396
G1 X98.662 Y144.379 E109.01221
G1 X98.66 Y146.082 E109.13116
G1 X98.671 Y147.356 E109.22015
G1 X98.92 Y147.36 E109.23754
G1 X98.962 Y147.534 E109.25004
G1 X99.256 Y148.279 E109.30599
G1 X99.639 Y148.977 E109.3616
G1 X100.105 Y149.622 E109.41717
G1 X100.65 Y150.205 E109.47292
G1 X101.272 Y150.72 E109.52932
G1 X101.945 Y151.147 E109.58499
G1 X102.665 Y151.486 E109.64057
G1 X103.423 Y151.733 E109.69626
G1 X104.206 Y151.881 E109.75192
G1 X105 Y151.932 E109.80749
G1 X105.794 Y151.881 E109.86306
G1 X106.577 Y151.733 E109.91872
G1 X107.335 Y151.486 E109.9744
G1 X108.055 Y151.147 E110.02999
G1 X108.728 Y150.72 E110.08566
G1 X109.341 Y150.213 E110.14122
G1 X109.887 Y149.631 E110.19696
G1 X110.355 Y148.987 E110.25256
G1 X110.739 Y148.289 E110.3082
G1 X111.032 Y147.549 E110.36379
G1 X111.08 Y147.361 E110.37735
G1 X111.34 Y147.357 E110.39551
M204 S3000
M205 X10 Y10
G0 F3000 X110.78 Y146.805
M204 S1800
M205 X8 Y8
;TYPE:WALL-OUTER
G1 F1800 X110.778 Y144.401 E110.56342
G1 X110.737 Y143.786 E110.60647
G1 X110.602 Y143.074 E110.65709
G1 X110.38 Y142.383 E110.70778
G1 X110.072 Y141.725 E110.75853
G1 X109.684 Y141.112 E110.8092
G1 X109.222 Y140.552 E110.8599
G1 X108.685 Y140.046 E110.91144
G1 X108.097 Y139.619 E110.9622
G1 X107.461 Y139.269 E111.0129
G1 X106.787 Y139.002 E111.06354
G1 X106.083 Y138.821 E111.11431
G1 X105.362 Y138.731 E111.16506
G1 X104.638 Y138.731 E111.21563
G1 X103.917 Y138.821 E111.26638
G1 X103.213 Y139.002 E111.31715
G1 X102.539 Y139.269 E111.36778
G1 X101.903 Y139.619 E111.41849
G1 X101.315 Y140.046 E111.46924
G1 X100.787 Y140.543 E111.51989
G1 X100.33 Y141.093 E111.56984
G1 X99.94 Y141.704 E111.62046
G1 X99.63 Y142.36 E111.67114
G1 X99.405 Y143.051 E111.7219
G1 X99.268 Y143.763 E111.77254
G1 X99.222 Y144.4 E111.81715
G1 X99.22 Y146.08 E111.93449
G1 X99.226 Y146.804 E111.98506
G1 X99.361 Y146.806 E111.99449
G1 X99.497 Y147.364 E112.03461
G1 X99.764 Y148.041 E112.08544
G1 X100.113 Y148.677 E112.13611
G1 X100.538 Y149.265 E112.18678
G1 X101.035 Y149.796 E112.23758
G1 X101.602 Y150.266 E112.28902
G1 X102.215 Y150.655 E112.33973
G1 X102.872 Y150.964 E112.39044
G1 X103.562 Y151.189 E112.44113
G1 X104.276 Y151.324 E112.49189
G1 X105 Y151.371 E112.54256
G1 X105.724 Y151.324 E112.59324
G1 X106.438 Y151.189 E112.64399
G1 X107.128 Y150.964 E112.69468
G1 X107.785 Y150.655 E112.7454
G1 X108.398 Y150.266 E112.7961
G1 X108.957 Y149.804 E112.84676
G1 X109.454 Y149.274 E112.89751
G1 X109.881 Y148.686 E112.94826
G1 X110.231 Y148.05 E112.99897
G1 X110.498 Y147.376 E113.0496
G1 X110.644 Y146.807 E113.09063
G1 X110.78 Y146.805 E113.10013
M204 S3000
M205 X10 Y10
G0 F3000 X110.78 Y146.605
G0 X111.44 Y146.605
G0 X110.388 Y149.008
G0 X109.917 Y149.656
G0 X109.368 Y150.242
G0 X108.751 Y150.752
G0 X90.91 Y159.09
G0 X90.28 Y159.72
M204 S1800
M205 X8 Y8
G1 F1800 X90.28 Y50.28 E120.74411
G1 X119.72 Y50.28 E122.80038
G1 X119.72 Y159.72 E130.44436
G1 X90.28 Y159.72 E132.50064
M204 S3000
M205 X10 Y10
G0 F3000 X90.28 Y159.52
G0 X90.91 Y159.09
G0 X91.95 Y158.05
M204 S1800
M205 X8 Y8
;TYPE:SKIN
G1 F1800 X91.95 Y51.95 E139.91133
G1 X118.05 Y51.95 E141.73431
G1 X118.05 Y158.05 E149.14501
G1 X91.95 Y158.05 E150.96799
M204 S3000
M205 X10 Y10
G0 F3000 X99.888 Y151.015
M204 S1800
M205 X8 Y8
G1 F1800 X100.618 Y151.62 E151.03422
G1 X101.41 Y152.122 E151.09971
G1 X102.255 Y152.52 E151.16495
G1 X103.147 Y152.811 E151.23048
G1 X104.067 Y152.984 E151.29587
G1 X105 Y153.045 E151.36117
G1 X105.933 Y152.984 E151.42648
G1 X106.853 Y152.811 E151.49186
G1 X107.745 Y152.52 E151.5574
G1 X108.59 Y152.122 E151.62264
G1 X109.382 Y151.62 E151.68813
G1 X110.102 Y151.023 E151.75346
G1 X110.743 Y150.341 E151.81883
G1 X111.294 Y149.583 E151.88429
G1 X111.746 Y148.763 E151.94969
G1 X111.866 Y148.459 E151.97251
G1 X112.45 Y148.448 E152.01331
G1 X112.448 Y144.345 E152.29989
G1 X112.397 Y143.575 E152.35379
G1 X112.224 Y142.661 E152.41876
G1 X111.937 Y141.771 E152.48408
G1 X111.539 Y140.92 E152.5497
G1 X111.038 Y140.13 E152.61504
G1 X110.445 Y139.409 E152.68024
G1 X109.753 Y138.758 E152.7466
G1 X108.994 Y138.206 E152.81215
G1 X108.174 Y137.754 E152.87755
G1 X107.305 Y137.41 E152.94283
G1 X106.395 Y137.177 E153.00844
G1 X105.466 Y137.061 E153.07383
G1 X104.534 Y137.061 E153.13893
G1 X103.605 Y137.177 E153.20432
G1 X102.695 Y137.41 E153.26993
G1 X101.826 Y137.754 E153.33521
G1 X101.006 Y138.206 E153.40061
G1 X100.247 Y138.758 E153.46616
G1 X99.568 Y139.398 E153.53133
G1 X98.979 Y140.106 E153.59566
G1 X98.475 Y140.895 E153.66105
G1 X98.076 Y141.742 E153.72644
G1 X97.785 Y142.633 E153.79191
G1 X97.61 Y143.545 E153.85677
G1 X97.552 Y144.338 E153.91231
G1 X97.55 Y146.086 E154.0344
G1 X97.57 Y148.449 E154.19945
G1 X98.133 Y148.457 E154.23878
G1 X98.249 Y148.751 E154.26086
G1 X98.699 Y149.572 E154.32625
G1 X99.246 Y150.329 E154.39148
G1 X99.888 Y151.015 E154.45711
M204 S3000
M205 X10 Y10
G0 F3000 X92.848 Y157.789
M204 S1800
M205 X8 Y8
G1 F1800 X92.209 Y157.15 E154.52023
M204 S3000
M205 X10 Y10
G0 F3000 X92.209 Y156.358
M204 S1800
M205 X8 Y8
G1 F1800 X93.64 Y157.789 E154.66158
M204 S3000
M205 X10 Y10
G0 F3000 X94.432 Y157.789
M204 S1800
M205 X8 Y8
G1 F1800 X92.209 Y155.566 E154.88116
M204 S3000
M205 X10 Y10
G0 F3000 X92.209 Y154.774
M204 S1800
M205 X8 Y8
G1 F1800 X95.224 Y157.789 E155.17897
M204 S3000
M205 X10 Y10
G0 F3000 X96.016 Y157.789
M204 S1800
M205 X8 Y8
G1 F1800 X92.209 Y153.982 E155.55502
M204 S3000
M205 X10 Y10
G0 F3000 X92.209 Y153.19
M204 S1800
M205 X8 Y8
G1 F1800 X96.808 Y157.789 E156.0093
M204 S3000
M205 X10 Y10
G0 F3000 X97.6 Y157.789
M204 S1800
M205 X8 Y8
G1 F1800 X92.209 Y152.398 E156.54181
M204 S3000
M205 X10 Y10
G0 F3000 X92.209 Y151.606
M204 S1800
M205 X8 Y8
G1 F1800 X98.392 Y157.789 E157.15255
M204 S3000
M205 X10 Y10
G0 F3000 X99.184 Y157.789
M204 S1800
M205 X8 Y8
G1 F1800 X92.209 Y150.814 E157.84152
M204 S3000
M205 X10 Y10
G0 F3000 X92.209 Y150.022
M204 S1800
M205 X8 Y8
G1 F1800 X99.976 Y157.789 E158.60873
M204 S3000
M205 X10 Y10
G0 F3000 X100.768 Y157.789
M204 S1800
M205 X8 Y8
G1 F1800 X92.209 Y149.23 E159.45416
M204 S3000
M205 X10 Y10
G0 F3000 X92.209 Y148.438
M204 S1800
M205 X8 Y8
G1 F1800 X101.56 Y157.789 E160.37783
M204 S3000
M205 X10 Y10
G0 F3000 X102.352 Y157.789
M204 S1800
M205 X8 Y8
G1 F1800 X92.209 Y147.646 E161.37973
M204 S3000
M205 X10 Y10
G0 F3000 X92.209 Y146.854
M204 S1800
M205 X8 Y8
G1 F1800 X103.144 Y157.789 E162.45987
M204 S3000
M205 X10 Y10
G0 F3000 X103.936 Y157.789
M204 S1800
M205 X8 Y8
G1 F1800 X92.209 Y146.062 E163.61823
M204 S3000
M205 X10 Y10
G0 F3000 X92.209 Y145.27
M204 S1800
M205 X8 Y8
G1 F1800 X104.728 Y157.789 E164.85483
M204 S3000
M205 X10 Y10
G0 F3000 X105.52 Y157.789
M204 S1800
M205 X8 Y8
