(Exported by FreeCAD)
(Post Processor: grbl_post)
(Output Time:2020-05-21 14:07:19.765942)
(begin preamble)
G17 G90
G21
(begin operation: Default Tool)
(Path: Default Tool)
(Default Tool)
(begin toolchange)
; M6 T1
M3 S10000.0000
(finish operation: Default Tool)
(begin operation: Contour)
(Path: Contour)
(Contour)
(Compensated Tool Path. Diameter: 1.8)
G0 Z5.0000
G0
G0 Z0.0000
G1 X0.3636 Y0.3636 Z-0.2500 F60.00
G2 X0.1000 Y1.0000 Z-0.2500 I0.6364 J0.6364 F300.00
G1 X0.1000 Y32.1068 Z-0.2500 F300.00
G2 X10.1849 Y42.2324 Z-0.2500 I10.1272 J-0.0016 F300.00
G2 X12.3980 Y41.0290 Z-0.2500 I0.0340 J-2.5741 F300.00
G3 X19.5992 Y41.0400 Z-0.2500 I3.5976 J1.9789 F300.00
G3 X12.4198 Y45.0023 Z-0.2500 I-3.6018 J1.9593 F300.00
G2 X10.3206 Y43.7716 Z-0.2500 I-2.1964 J1.3407 F300.00
G2 X0.1010 Y53.8516 Z-0.2500 I-0.1005 J10.1187 F300.00
G1 X0.1000 Y58.0000 Z-0.2500 F300.00
G2 X1.0000 Y58.9000 Z-0.2500 I0.9000 J0.0000 F300.00
G1 X31.0000 Y58.9000 Z-0.2500 F300.00
G2 X31.9000 Y58.0000 Z-0.2500 I0.0000 J-0.9000 F300.00
G1 X31.9000 Y28.0000 Z-0.2500 F300.00
G2 X31.0000 Y27.1000 Z-0.2500 I-0.9000 J-0.0000 F300.00
G1 X16.9000 Y27.1000 Z-0.2500 F300.00
G1 X16.9000 Y11.9000 Z-0.2500 F300.00
G1 X31.0000 Y11.9000 Z-0.2500 F300.00
G2 X31.9000 Y11.0000 Z-0.2500 I0.0000 J-0.9000 F300.00
G1 X31.9000 Y1.0000 Z-0.2500 F300.00
G2 X31.0000 Y0.1000 Z-0.2500 I-0.9000 J-0.0000 F300.00
G1 X1.0000 Y0.1000 Z-0.2500 F300.00
G2 X0.3636 Y0.3636 Z-0.2500 I-0.0000 J0.9000 F300.00
G1 X0.3636 Y0.3636 Z-0.5000 F60.00
G2 X0.1000 Y1.0000 Z-0.5000 I0.6364 J0.6364 F300.00
G1 X0.1000 Y32.1068 Z-0.5000 F300.00
G2 X10.1849 Y42.2324 Z-0.5000 I10.1272 J-0.0016 F300.00
G2 X12.3980 Y41.0290 Z-0.5000 I0.0340 J-2.5741 F300.00
G3 X19.5992 Y41.0400 Z-0.5000 I3.5976 J1.9789 F300.00
G3 X12.4198 Y45.0023 Z-0.5000 I-3.6018 J1.9593 F300.00
G2 X10.3206 Y43.7716 Z-0.5000 I-2.1964 J1.3407 F300.00
G2 X0.1010 Y53.8516 Z-0.5000 I-0.1005 J10.1187 F300.00
G1 X0.1000 Y58.0000 Z-0.5000 F300.00
G2 X1.0000 Y58.9000 Z-0.5000 I0.9000 J0.0000 F300.00
G1 X31.0000 Y58.9000 Z-0.5000 F300.00
G2 X31.9000 Y58.0000 Z-0.5000 I0.0000 J-0.9000 F300.00
G1 X31.9000 Y28.0000 Z-0.5000 F300.00
G2 X31.0000 Y27.1000 Z-0.5000 I-0.9000 J-0.0000 F300.00
G1 X16.9000 Y27.1000 Z-0.5000 F300.00
G1 X16.9000 Y11.9000 Z-0.5000 F300.00
G1 X31.0000 Y11.9000 Z-0.5000 F300.00
G2 X31.9000 Y11.0000 Z-0.5000 I0.0000 J-0.9000 F300.00
G1 X31.9000 Y1.0000 Z-0.5000 F300.00
G2 X31.0000 Y0.1000 Z-0.5000 I-0.9000 J-0.0000 F300.00
G1 X1.0000 Y0.1000 Z-0.5000 F300.00
G2 X0.3636 Y0.3636 Z-0.5000 I-0.0000 J0.9000 F300.00
G1 X0.3636 Y0.3636 Z-0.7500 F60.00
G2 X0.1000 Y1.0000 Z-0.7500 I0.6364 J0.6364 F300.00
G1 X0.1000 Y32.1068 Z-0.7500 F300.00
G2 X10.1849 Y42.2324 Z-0.7500 I10.1272 J-0.0016 F300.00
G2 X12.3980 Y41.0290 Z-0.7500 I0.0340 J-2.5741 F300.00
G3 X19.5992 Y41.0400 Z-0.7500 I3.5976 J1.9789 F300.00
G3 X12.4198 Y45.0023 Z-0.7500 I-3.6018 J1.9593 F300.00
G2 X10.3206 Y43.7716 Z-0.7500 I-2.1964 J1.3407 F300.00
G2 X0.1010 Y53.8516 Z-0.7500 I-0.1005 J10.1187 F300.00
G1 X0.1000 Y58.0000 Z-0.7500 F300.00
G2 X1.0000 Y58.9000 Z-0.7500 I0.9000 J0.0000 F300.00
G1 X31.0000 Y58.9000 Z-0.7500 F300.00
G2 X31.9000 Y58.0000 Z-0.7500 I0.0000 J-0.9000 F300.00
G1 X31.9000 Y28.0000 Z-0.7500 F300.00
G2 X31.0000 Y27.1000 Z-0.7500 I-0.9000 J-0.0000 F300.00
G1 X16.9000 Y27.1000 Z-0.7500 F300.00
G1 X16.9000 Y11.9000 Z-0.7500 F300.00
G1 X31.0000 Y11.9000 Z-0.7500 F300.00
G2 X31.9000 Y11.0000 Z-0.7500 I0.0000 J-0.9000 F300.00
G1 X31.9000 Y1.0000 Z-0.7500 F300.00
G2 X31.0000 Y0.1000 Z-0.7500 I-0.9000 J-0.0000 F300.00
G1 X1.0000 Y0.1000 Z-0.7500 F300.00
G2 X0.3636 Y0.3636 Z-0.7500 I-0.0000 J0.9000 F300.00
G1 X0.3636 Y0.3636 Z-1.0000 F60.00
G2 X0.1000 Y1.0000 Z-1.0000 I0.6364 J0.6364 F300.00
G1 X0.1000 Y32.1068 Z-1.0000 F300.00
G2 X10.1849 Y42.2324 Z-1.0000 I10.1272 J-0.0016 F300.00
G2 X12.3980 Y41.0290 Z-1.0000 I0.0340 J-2.5741 F300.00
G3 X19.5992 Y41.0400 Z-1.0000 I3.5976 J1.9789 F300.00
G3 X12.4198 Y45.0023 Z-1.0000 I-3.6018 J1.9593 F300.00
G2 X10.3206 Y43.7716 Z-1.0000 I-2.1964 J1.3407 F300.00
G2 X0.1010 Y53.8516 Z-1.0000 I-0.1005 J10.1187 F300.00
G1 X0.1000 Y58.0000 Z-1.0000 F300.00
G2 X1.0000 Y58.9000 Z-1.0000 I0.9000 J0.0000 F300.00
G1 X31.0000 Y58.9000 Z-1.0000 F300.00
G2 X31.9000 Y58.0000 Z-1.0000 I0.0000 J-0.9000 F300.00
G1 X31.9000 Y28.0000 Z-1.0000 F300.00
G2 X31.0000 Y27.1000 Z-1.0000 I-0.9000 J-0.0000 F300.00
G1 X16.9000 Y27.1000 Z-1.0000 F300.00
G1 X16.9000 Y11.9000 Z-1.0000 F300.00
G1 X31.0000 Y11.9000 Z-1.0000 F300.00
G2 X31.9000 Y11.0000 Z-1.0000 I0.0000 J-0.9000 F300.00
G1 X31.9000 Y1.0000 Z-1.0000 F300.00
G2 X31.0000 Y0.1000 Z-1.0000 I-0.9000 J-0.0000 F300.00
G1 X1.0000 Y0.1000 Z-1.0000 F300.00
G2 X0.3636 Y0.3636 Z-1.0000 I-0.0000 J0.9000 F300.00
G1 X0.3636 Y0.3636 Z-1.2500 F60.00
G2 X0.1000 Y1.0000 Z-1.2500 I0.6364 J0.6364 F300.00
G1 X0.1000 Y32.1068 Z-1.2500 F300.00
G2 X10.1849 Y42.2324 Z-1.2500 I10.1272 J-0.0016 F300.00
G2 X12.3980 Y41.0290 Z-1.2500 I0.0340 J-2.5741 F300.00
G3 X19.5992 Y41.0400 Z-1.2500 I3.5976 J1.9789 F300.00
G3 X12.4198 Y45.0023 Z-1.2500 I-3.6018 J1.9593 F300.00
G2 X10.3206 Y43.7716 Z-1.2500 I-2.1964 J1.3407 F300.00
G2 X0.1010 Y53.8516 Z-1.2500 I-0.1005 J10.1187 F300.00
G1 X0.1000 Y58.0000 Z-1.2500 F300.00
G2 X1.0000 Y58.9000 Z-1.2500 I0.9000 J0.0000 F300.00
G1 X31.0000 Y58.9000 Z-1.2500 F300.00
G2 X31.9000 Y58.0000 Z-1.2500 I0.0000 J-0.9000 F300.00
G1 X31.9000 Y28.0000 Z-1.2500 F300.00
G2 X31.0000 Y27.1000 Z-1.2500 I-0.9000 J-0.0000 F300.00
G1 X16.9000 Y27.1000 Z-1.2500 F300.00
G1 X16.9000 Y11.9000 Z-1.2500 F300.00
G1 X31.0000 Y11.9000 Z-1.2500 F300.00
G2 X31.9000 Y11.0000 Z-1.2500 I0.0000 J-0.9000 F300.00
G1 X31.9000 Y1.0000 Z-1.2500 F300.00
G2 X31.0000 Y0.1000 Z-1.2500 I-0.9000 J-0.0000 F300.00
G1 X1.0000 Y0.1000 Z-1.2500 F300.00
G2 X0.3636 Y0.3636 Z-1.2500 I-0.0000 J0.9000 F300.00
G1 X0.3636 Y0.3636 Z-1.5000 F60.00
G2 X0.1000 Y1.0000 Z-1.5000 I0.6364 J0.6364 F300.00
G1 X0.1000 Y32.1068 Z-1.5000 F300.00
G2 X10.1849 Y42.2324 Z-1.5000 I10.1272 J-0.0016 F300.00
G2 X12.3980 Y41.0290 Z-1.5000 I0.0340 J-2.5741 F300.00
G3 X19.5992 Y41.0400 Z-1.5000 I3.5976 J1.9789 F300.00
G3 X12.4198 Y45.0023 Z-1.5000 I-3.6018 J1.9593 F300.00
G2 X10.3206 Y43.7716 Z-1.5000 I-2.1964 J1.3407 F300.00
G2 X0.1010 Y53.8516 Z-1.5000 I-0.1005 J10.1187 F300.00
G1 X0.1000 Y58.0000 Z-1.5000 F300.00
G2 X1.0000 Y58.9000 Z-1.5000 I0.9000 J0.0000 F300.00
G1 X31.0000 Y58.9000 Z-1.5000 F300.00
G2 X31.9000 Y58.0000 Z-1.5000 I0.0000 J-0.9000 F300.00
G1 X31.9000 Y28.0000 Z-1.5000 F300.00
G2 X31.0000 Y27.1000 Z-1.5000 I-0.9000 J-0.0000 F300.00
G1 X16.9000 Y27.1000 Z-1.5000 F300.00
G1 X16.9000 Y11.9000 Z-1.5000 F300.00
G1 X31.0000 Y11.9000 Z-1.5000 F300.00
G2 X31.9000 Y11.0000 Z-1.5000 I0.0000 J-0.9000 F300.00
G1 X31.9000 Y1.0000 Z-1.5000 F300.00
G2 X31.0000 Y0.1000 Z-1.5000 I-0.9000 J-0.0000 F300.00
G1 X1.0000 Y0.1000 Z-1.5000 F300.00
G2 X0.3636 Y0.3636 Z-1.5000 I-0.0000 J0.9000 F300.00
G1 X0.3636 Y0.3636 Z-1.7500 F60.00
G2 X0.1000 Y1.0000 Z-1.7500 I0.6364 J0.6364 F300.00
G1 X0.1000 Y32.1068 Z-1.7500 F300.00
G2 X10.1849 Y42.2324 Z-1.7500 I10.1272 J-0.0016 F300.00
G2 X12.3980 Y41.0290 Z-1.7500 I0.0340 J-2.5741 F300.00
G3 X19.5992 Y41.0400 Z-1.7500 I3.5976 J1.9789 F300.00
G3 X12.4198 Y45.0023 Z-1.7500 I-3.6018 J1.9593 F300.00
G2 X10.3206 Y43.7716 Z-1.7500 I-2.1964 J1.3407 F300.00
G2 X0.1010 Y53.8516 Z-1.7500 I-0.1005 J10.1187 F300.00
G1 X0.1000 Y58.0000 Z-1.7500 F300.00
G2 X1.0000 Y58.9000 Z-1.7500 I0.9000 J0.0000 F300.00
G1 X31.0000 Y58.9000 Z-1.7500 F300.00
G2 X31.9000 Y58.0000 Z-1.7500 I0.0000 J-0.9000 F300.00
G1 X31.9000 Y28.0000 Z-1.7500 F300.00
G2 X31.0000 Y27.1000 Z-1.7500 I-0.9000 J-0.0000 F300.00
G1 X16.9000 Y27.1000 Z-1.7500 F300.00
G1 X16.9000 Y11.9000 Z-1.7500 F300.00
G1 X31.0000 Y11.9000 Z-1.7500 F300.00
G2 X31.9000 Y11.0000 Z-1.7500 I0.0000 J-0.9000 F300.00
G1 X31.9000 Y1.0000 Z-1.7500 F300.00
G2 X31.0000 Y0.1000 Z-1.7500 I-0.9000 J-0.0000 F300.00
G1 X1.0000 Y0.1000 Z-1.7500 F300.00
G2 X0.3636 Y0.3636 Z-1.7500 I-0.0000 J0.9000 F300.00
G1 X0.3636 Y0.3636 Z-2.0000 F60.00
G2 X0.1000 Y1.0000 Z-2.0000 I0.6364 J0.6364 F300.00
G1 X0.1000 Y32.1068 Z-2.0000 F300.00
G2 X10.1849 Y42.2324 Z-2.0000 I10.1272 J-0.0016 F300.00
G2 X12.3980 Y41.0290 Z-2.0000 I0.0340 J-2.5741 F300.00
G3 X19.5992 Y41.0400 Z-2.0000 I3.5976 J1.9789 F300.00
G3 X12.4198 Y45.0023 Z-2.0000 I-3.6018 J1.9593 F300.00
G2 X10.3206 Y43.7716 Z-2.0000 I-2.1964 J1.3407 F300.00
G2 X0.1010 Y53.8516 Z-2.0000 I-0.1005 J10.1187 F300.00
G1 X0.1000 Y58.0000 Z-2.0000 F300.00
G2 X1.0000 Y58.9000 Z-2.0000 I0.9000 J0.0000 F300.00
G1 X31.0000 Y58.9000 Z-2.0000 F300.00
G2 X31.9000 Y58.0000 Z-2.0000 I0.0000 J-0.9000 F300.00
G1 X31.9000 Y28.0000 Z-2.0000 F300.00
G2 X31.0000 Y27.1000 Z-2.0000 I-0.9000 J-0.0000 F300.00
G1 X16.9000 Y27.1000 Z-2.0000 F300.00
G1 X16.9000 Y11.9000 Z-2.0000 F300.00
G1 X31.0000 Y11.9000 Z-2.0000 F300.00
G2 X31.9000 Y11.0000 Z-2.0000 I0.0000 J-0.9000 F300.00
G1 X31.9000 Y1.0000 Z-2.0000 F300.00
G2 X31.0000 Y0.1000 Z-2.0000 I-0.9000 J-0.0000 F300.00
G1 X1.0000 Y0.1000 Z-2.0000 F300.00
G2 X0.3636 Y0.3636 Z-2.0000 I-0.0000 J0.9000 F300.00
G1 X0.3636 Y0.3636 Z-2.2500 F60.00
G2 X0.1000 Y1.0000 Z-2.2500 I0.6364 J0.6364 F300.00
G1 X0.1000 Y32.1068 Z-2.2500 F300.00
G2 X10.1849 Y42.2324 Z-2.2500 I10.1272 J-0.0016 F300.00
G2 X12.3980 Y41.0290 Z-2.2500 I0.0340 J-2.5741 F300.00
G3 X19.5992 Y41.0400 Z-2.2500 I3.5976 J1.9789 F300.00
G3 X12.4198 Y45.0023 Z-2.2500 I-3.6018 J1.9593 F300.00
G2 X10.3206 Y43.7716 Z-2.2500 I-2.1964 J1.3407 F300.00
G2 X0.1010 Y53.8516 Z-2.2500 I-0.1005 J10.1187 F300.00
G1 X0.1000 Y58.0000 Z-2.2500 F300.00
G2 X1.0000 Y58.9000 Z-2.2500 I0.9000 J0.0000 F300.00
G1 X31.0000 Y58.9000 Z-2.2500 F300.00
G2 X31.9000 Y58.0000 Z-2.2500 I0.0000 J-0.9000 F300.00
G1 X31.9000 Y28.0000 Z-2.2500 F300.00
G2 X31.0000 Y27.1000 Z-2.2500 I-0.9000 J-0.0000 F300.00
G1 X16.9000 Y27.1000 Z-2.2500 F300.00
G1 X16.9000 Y11.9000 Z-2.2500 F300.00
G1 X31.0000 Y11.9000 Z-2.2500 F300.00
G2 X31.9000 Y11.0000 Z-2.2500 I0.0000 J-0.9000 F300.00
G1 X31.9000 Y1.0000 Z-2.2500 F300.00
G2 X31.0000 Y0.1000 Z-2.2500 I-0.9000 J-0.0000 F300.00
G1 X1.0000 Y0.1000 Z-2.2500 F300.00
G2 X0.3636 Y0.3636 Z-2.2500 I-0.0000 J0.9000 F300.00
G1 X0.3636 Y0.3636 Z-2.5000 F60.00
G2 X0.1000 Y1.0000 Z-2.5000 I0.6364 J0.6364 F300.00
G1 X0.1000 Y32.1068 Z-2.5000 F300.00
G2 X10.1849 Y42.2324 Z-2.5000 I10.1272 J-0.0016 F300.00
G2 X12.3980 Y41.0290 Z-2.5000 I0.0340 J-2.5741 F300.00
G3 X19.5992 Y41.0400 Z-2.5000 I3.5976 J1.9789 F300.00
G3 X12.4198 Y45.0023 Z-2.5000 I-3.6018 J1.9593 F300.00
G2 X10.3206 Y43.7716 Z-2.5000 I-2.1964 J1.3407 F300.00
G2 X0.1010 Y53.8516 Z-2.5000 I-0.1005 J10.1187 F300.00
G1 X0.1000 Y58.0000 Z-2.5000 F300.00
G2 X1.0000 Y58.9000 Z-2.5000 I0.9000 J0.0000 F300.00
G1 X31.0000 Y58.9000 Z-2.5000 F300.00
G2 X31.9000 Y58.0000 Z-2.5000 I0.0000 J-0.9000 F300.00
G1 X31.9000 Y28.0000 Z-2.5000 F300.00
G2 X31.0000 Y27.1000 Z-2.5000 I-0.9000 J-0.0000 F300.00
G1 X16.9000 Y27.1000 Z-2.5000 F300.00
G1 X16.9000 Y11.9000 Z-2.5000 F300.00
G1 X31.0000 Y11.9000 Z-2.5000 F300.00
G2 X31.9000 Y11.0000 Z-2.5000 I0.0000 J-0.9000 F300.00
G1 X31.9000 Y1.0000 Z-2.5000 F300.00
G2 X31.0000 Y0.1000 Z-2.5000 I-0.9000 J-0.0000 F300.00
G1 X1.0000 Y0.1000 Z-2.5000 F300.00
G2 X0.3636 Y0.3636 Z-2.5000 I-0.0000 J0.9000 F300.00
G1 X0.3636 Y0.3636 Z-2.7500 F60.00
G2 X0.1000 Y1.0000 Z-2.7500 I0.6364 J0.6364 F300.00
G1 X0.1000 Y32.1068 Z-2.7500 F300.00
G2 X10.1849 Y42.2324 Z-2.7500 I10.1272 J-0.0016 F300.00
G2 X12.3980 Y41.0290 Z-2.7500 I0.0340 J-2.5741 F300.00
G3 X19.5992 Y41.0400 Z-2.7500 I3.5976 J1.9789 F300.00
G3 X12.4198 Y45.0023 Z-2.7500 I-3.6018 J1.9593 F300.00
G2 X10.3206 Y43.7716 Z-2.7500 I-2.1964 J1.3407 F300.00
G2 X0.1010 Y53.8516 Z-2.7500 I-0.1005 J10.1187 F300.00
G1 X0.1000 Y58.0000 Z-2.7500 F300.00
G2 X1.0000 Y58.9000 Z-2.7500 I0.9000 J0.0000 F300.00
G1 X31.0000 Y58.9000 Z-2.7500 F300.00
G2 X31.9000 Y58.0000 Z-2.7500 I0.0000 J-0.9000 F300.00
G1 X31.9000 Y28.0000 Z-2.7500 F300.00
G2 X31.0000 Y27.1000 Z-2.7500 I-0.9000 J-0.0000 F300.00
G1 X16.9000 Y27.1000 Z-2.7500 F300.00
G1 X16.9000 Y11.9000 Z-2.7500 F300.00
G1 X31.0000 Y11.9000 Z-2.7500 F300.00
G2 X31.9000 Y11.0000 Z-2.7500 I0.0000 J-0.9000 F300.00
G1 X31.9000 Y1.0000 Z-2.7500 F300.00
G2 X31.0000 Y0.1000 Z-2.7500 I-0.9000 J-0.0000 F300.00
G1 X1.0000 Y0.1000 Z-2.7500 F300.00
G2 X0.3636 Y0.3636 Z-2.7500 I-0.0000 J0.9000 F300.00
G1 X0.3636 Y0.3636 Z-3.0000 F60.00
G2 X0.1000 Y1.0000 Z-3.0000 I0.6364 J0.6364 F300.00
G1 X0.1000 Y32.1068 Z-3.0000 F300.00
G2 X10.1849 Y42.2324 Z-3.0000 I10.1272 J-0.0016 F300.00
G2 X12.3980 Y41.0290 Z-3.0000 I0.0340 J-2.5741 F300.00
G3 X19.5992 Y41.0400 Z-3.0000 I3.5976 J1.9789 F300.00
G3 X12.4198 Y45.0023 Z-3.0000 I-3.6018 J1.9593 F300.00
G2 X10.3206 Y43.7716 Z-3.0000 I-2.1964 J1.3407 F300.00
G2 X0.1010 Y53.8516 Z-3.0000 I-0.1005 J10.1187 F300.00
G1 X0.1000 Y58.0000 Z-3.0000 F300.00
G2 X1.0000 Y58.9000 Z-3.0000 I0.9000 J0.0000 F300.00
G1 X31.0000 Y58.9000 Z-3.0000 F300.00
G2 X31.9000 Y58.0000 Z-3.0000 I0.0000 J-0.9000 F300.00
G1 X31.9000 Y28.0000 Z-3.0000 F300.00
G2 X31.0000 Y27.1000 Z-3.0000 I-0.9000 J-0.0000 F300.00
G1 X16.9000 Y27.1000 Z-3.0000 F300.00
G1 X16.9000 Y11.9000 Z-3.0000 F300.00
G1 X31.0000 Y11.9000 Z-3.0000 F300.00
G2 X31.9000 Y11.0000 Z-3.0000 I0.0000 J-0.9000 F300.00
G1 X31.9000 Y1.0000 Z-3.0000 F300.00
G2 X31.0000 Y0.1000 Z-3.0000 I-0.9000 J-0.0000 F300.00
G1 X1.0000 Y0.1000 Z-3.0000 F300.00
G2 X0.3636 Y0.3636 Z-3.0000 I-0.0000 J0.9000 F300.00
G1 X0.3636 Y0.3636 Z-3.2500 F60.00
G2 X0.1000 Y1.0000 Z-3.2500 I0.6364 J0.6364 F300.00
G1 X0.1000 Y32.1068 Z-3.2500 F300.00
G2 X10.1849 Y42.2324 Z-3.2500 I10.1272 J-0.0016 F300.00
G2 X12.3980 Y41.0290 Z-3.2500 I0.0340 J-2.5741 F300.00
G3 X19.5992 Y41.0400 Z-3.2500 I3.5976 J1.9789 F300.00
G3 X12.4198 Y45.0023 Z-3.2500 I-3.6018 J1.9593 F300.00
G2 X10.3206 Y43.7716 Z-3.2500 I-2.1964 J1.3407 F300.00
G2 X0.1010 Y53.8516 Z-3.2500 I-0.1005 J10.1187 F300.00
G1 X0.1000 Y58.0000 Z-3.2500 F300.00
G2 X1.0000 Y58.9000 Z-3.2500 I0.9000 J0.0000 F300.00
G1 X31.0000 Y58.9000 Z-3.2500 F300.00
G2 X31.9000 Y58.0000 Z-3.2500 I0.0000 J-0.9000 F300.00
G1 X31.9000 Y28.0000 Z-3.2500 F300.00
G2 X31.0000 Y27.1000 Z-3.2500 I-0.9000 J-0.0000 F300.00
G1 X16.9000 Y27.1000 Z-3.2500 F300.00
G1 X16.9000 Y11.9000 Z-3.2500 F300.00
G1 X31.0000 Y11.9000 Z-3.2500 F300.00
G2 X31.9000 Y11.0000 Z-3.2500 I0.0000 J-0.9000 F300.00
G1 X31.9000 Y1.0000 Z-3.2500 F300.00
G2 X31.0000 Y0.1000 Z-3.2500 I-0.9000 J-0.0000 F300.00
G1 X1.0000 Y0.1000 Z-3.2500 F300.00
G2 X0.3636 Y0.3636 Z-3.2500 I-0.0000 J0.9000 F300.00
G1 X0.3636 Y0.3636 Z-3.5000 F60.00
G2 X0.1000 Y1.0000 Z-3.5000 I0.6364 J0.6364 F300.00
G1 X0.1000 Y32.1068 Z-3.5000 F300.00
G2 X10.1849 Y42.2324 Z-3.5000 I10.1272 J-0.0016 F300.00
G2 X12.3980 Y41.0290 Z-3.5000 I0.0340 J-2.5741 F300.00
G3 X19.5992 Y41.0400 Z-3.5000 I3.5976 J1.9789 F300.00
G3 X12.4198 Y45.0023 Z-3.5000 I-3.6018 J1.9593 F300.00
G2 X10.3206 Y43.7716 Z-3.5000 I-2.1964 J1.3407 F300.00
G2 X0.1010 Y53.8516 Z-3.5000 I-0.1005 J10.1187 F300.00
G1 X0.1000 Y58.0000 Z-3.5000 F300.00
G2 X1.0000 Y58.9000 Z-3.5000 I0.9000 J0.0000 F300.00
G1 X31.0000 Y58.9000 Z-3.5000 F300.00
G2 X31.9000 Y58.0000 Z-3.5000 I0.0000 J-0.9000 F300.00
G1 X31.9000 Y28.0000 Z-3.5000 F300.00
G2 X31.0000 Y27.1000 Z-3.5000 I-0.9000 J-0.0000 F300.00
G1 X16.9000 Y27.1000 Z-3.5000 F300.00
G1 X16.9000 Y11.9000 Z-3.5000 F300.00
G1 X31.0000 Y11.9000 Z-3.5000 F300.00
G2 X31.9000 Y11.0000 Z-3.5000 I0.0000 J-0.9000 F300.00
G1 X31.9000 Y1.0000 Z-3.5000 F300.00
G2 X31.0000 Y0.1000 Z-3.5000 I-0.9000 J-0.0000 F300.00
G1 X1.0000 Y0.1000 Z-3.5000 F300.00
G2 X0.3636 Y0.3636 Z-3.5000 I-0.0000 J0.9000 F300.00
G1 X0.3636 Y0.3636 Z-3.7500 F60.00
G2 X0.1000 Y1.0000 Z-3.7500 I0.6364 J0.6364 F300.00
G1 X0.1000 Y32.1068 Z-3.7500 F300.00
G2 X10.1849 Y42.2324 Z-3.7500 I10.1272 J-0.0016 F300.00
G2 X12.3980 Y41.0290 Z-3.7500 I0.0340 J-2.5741 F300.00
G3 X19.5992 Y41.0400 Z-3.7500 I3.5976 J1.9789 F300.00
G3 X12.4198 Y45.0023 Z-3.7500 I-3.6018 J1.9593 F300.00
G2 X10.3206 Y43.7716 Z-3.7500 I-2.1964 J1.3407 F300.00
G2 X0.1010 Y53.8516 Z-3.7500 I-0.1005 J10.1187 F300.00
G1 X0.1000 Y58.0000 Z-3.7500 F300.00
G2 X1.0000 Y58.9000 Z-3.7500 I0.9000 J0.0000 F300.00
G1 X31.0000 Y58.9000 Z-3.7500 F300.00
G2 X31.9000 Y58.0000 Z-3.7500 I0.0000 J-0.9000 F300.00
G1 X31.9000 Y28.0000 Z-3.7500 F300.00
G2 X31.0000 Y27.1000 Z-3.7500 I-0.9000 J-0.0000 F300.00
G1 X16.9000 Y27.1000 Z-3.7500 F300.00
G1 X16.9000 Y11.9000 Z-3.7500 F300.00
G1 X31.0000 Y11.9000 Z-3.7500 F300.00
G2 X31.9000 Y11.0000 Z-3.7500 I0.0000 J-0.9000 F300.00
G1 X31.9000 Y1.0000 Z-3.7500 F300.00
G2 X31.0000 Y0.1000 Z-3.7500 I-0.9000 J-0.0000 F300.00
G1 X1.0000 Y0.1000 Z-3.7500 F300.00
G2 X0.3636 Y0.3636 Z-3.7500 I-0.0000 J0.9000 F300.00
G1 X0.3636 Y0.3636 Z-4.0000 F60.00
G2 X0.1000 Y1.0000 Z-4.0000 I0.6364 J0.6364 F300.00
G1 X0.1000 Y32.1068 Z-4.0000 F300.00
G2 X10.1849 Y42.2324 Z-4.0000 I10.1272 J-0.0016 F300.00
G2 X12.3980 Y41.0290 Z-4.0000 I0.0340 J-2.5741 F300.00
G3 X19.5992 Y41.0400 Z-4.0000 I3.5976 J1.9789 F300.00
G3 X12.4198 Y45.0023 Z-4.0000 I-3.6018 J1.9593 F300.00
G2 X10.3206 Y43.7716 Z-4.0000 I-2.1964 J1.3407 F300.00
G2 X0.1010 Y53.8516 Z-4.0000 I-0.1005 J10.1187 F300.00
G1 X0.1000 Y58.0000 Z-4.0000 F300.00
G2 X1.0000 Y58.9000 Z-4.0000 I0.9000 J0.0000 F300.00
G1 X31.0000 Y58.9000 Z-4.0000 F300.00
G2 X31.9000 Y58.0000 Z-4.0000 I0.0000 J-0.9000 F300.00
G1 X31.9000 Y28.0000 Z-4.0000 F300.00
G2 X31.0000 Y27.1000 Z-4.0000 I-0.9000 J-0.0000 F300.00
G1 X16.9000 Y27.1000 Z-4.0000 F300.00
G1 X16.9000 Y11.9000 Z-4.0000 F300.00
G1 X31.0000 Y11.9000 Z-4.0000 F300.00
G2 X31.9000 Y11.0000 Z-4.0000 I0.0000 J-0.9000 F300.00
G1 X31.9000 Y1.0000 Z-4.0000 F300.00
G2 X31.0000 Y0.1000 Z-4.0000 I-0.9000 J-0.0000 F300.00
G1 X1.0000 Y0.1000 Z-4.0000 F300.00
G2 X0.3636 Y0.3636 Z-4.0000 I-0.0000 J0.9000 F300.00
G1 X0.3636 Y0.3636 Z-4.2500 F60.00
G2 X0.1000 Y1.0000 Z-4.2500 I0.6364 J0.6364 F300.00
G1 X0.1000 Y32.1068 Z-4.2500 F300.00
G2 X10.1849 Y42.2324 Z-4.2500 I10.1272 J-0.0016 F300.00
G2 X12.3980 Y41.0290 Z-4.2500 I0.0340 J-2.5741 F300.00
G3 X19.5992 Y41.0400 Z-4.2500 I3.5976 J1.9789 F300.00
G3 X12.4198 Y45.0023 Z-4.2500 I-3.6018 J1.9593 F300.00
G2 X10.3206 Y43.7716 Z-4.2500 I-2.1964 J1.3407 F300.00
G2 X0.1010 Y53.8516 Z-4.2500 I-0.1005 J10.1187 F300.00
G1 X0.1000 Y58.0000 Z-4.2500 F300.00
G2 X1.0000 Y58.9000 Z-4.2500 I0.9000 J0.0000 F300.00
G1 X31.0000 Y58.9000 Z-4.2500 F300.00
G2 X31.9000 Y58.0000 Z-4.2500 I0.0000 J-0.9000 F300.00
G1 X31.9000 Y28.0000 Z-4.2500 F300.00
G2 X31.0000 Y27.1000 Z-4.2500 I-0.9000 J-0.0000 F300.00
G1 X16.9000 Y27.1000 Z-4.2500 F300.00
G1 X16.9000 Y11.9000 Z-4.2500 F300.00
G1 X31.0000 Y11.9000 Z-4.2500 F300.00
G2 X31.9000 Y11.0000 Z-4.2500 I0.0000 J-0.9000 F300.00
G1 X31.9000 Y1.0000 Z-4.2500 F300.00
G2 X31.0000 Y0.1000 Z-4.2500 I-0.9000 J-0.0000 F300.00
G1 X1.0000 Y0.1000 Z-4.2500 F300.00
G2 X0.3636 Y0.3636 Z-4.2500 I-0.0000 J0.9000 F300.00
G1 X0.3636 Y0.3636 Z-4.5000 F60.00
G2 X0.1000 Y1.0000 Z-4.5000 I0.6364 J0.6364 F300.00
G1 X0.1000 Y32.1068 Z-4.5000 F300.00
G2 X10.1849 Y42.2324 Z-4.5000 I10.1272 J-0.0016 F300.00
G2 X12.3980 Y41.0290 Z-4.5000 I0.0340 J-2.5741 F300.00
G3 X19.5992 Y41.0400 Z-4.5000 I3.5976 J1.9789 F300.00
G3 X12.4198 Y45.0023 Z-4.5000 I-3.6018 J1.9593 F300.00
G2 X10.3206 Y43.7716 Z-4.5000 I-2.1964 J1.3407 F300.00
G2 X0.1010 Y53.8516 Z-4.5000 I-0.1005 J10.1187 F300.00
G1 X0.1000 Y58.0000 Z-4.5000 F300.00
G2 X1.0000 Y58.9000 Z-4.5000 I0.9000 J0.0000 F300.00
G1 X31.0000 Y58.9000 Z-4.5000 F300.00
G2 X31.9000 Y58.0000 Z-4.5000 I0.0000 J-0.9000 F300.00
G1 X31.9000 Y28.0000 Z-4.5000 F300.00
G2 X31.0000 Y27.1000 Z-4.5000 I-0.9000 J-0.0000 F300.00
G1 X16.9000 Y27.1000 Z-4.5000 F300.00
G1 X16.9000 Y11.9000 Z-4.5000 F300.00
G1 X31.0000 Y11.9000 Z-4.5000 F300.00
G2 X31.9000 Y11.0000 Z-4.5000 I0.0000 J-0.9000 F300.00
G1 X31.9000 Y1.0000 Z-4.5000 F300.00
G2 X31.0000 Y0.1000 Z-4.5000 I-0.9000 J-0.0000 F300.00
G1 X1.0000 Y0.1000 Z-4.5000 F300.00
G2 X0.3636 Y0.3636 Z-4.5000 I-0.0000 J0.9000 F300.00
G1 X0.3636 Y0.3636 Z-4.7500 F60.00
G2 X0.1000 Y1.0000 Z-4.7500 I0.6364 J0.6364 F300.00
G1 X0.1000 Y32.1068 Z-4.7500 F300.00
G2 X10.1849 Y42.2324 Z-4.7500 I10.1272 J-0.0016 F300.00
G2 X12.3980 Y41.0290 Z-4.7500 I0.0340 J-2.5741 F300.00
G3 X19.5992 Y41.0400 Z-4.7500 I3.5976 J1.9789 F300.00
G3 X12.4198 Y45.0023 Z-4.7500 I-3.6018 J1.9593 F300.00
G2 X10.3206 Y43.7716 Z-4.7500 I-2.1964 J1.3407 F300.00
G2 X0.1010 Y53.8516 Z-4.7500 I-0.1005 J10.1187 F300.00
G1 X0.1000 Y58.0000 Z-4.7500 F300.00
G2 X1.0000 Y58.9000 Z-4.7500 I0.9000 J0.0000 F300.00
G1 X31.0000 Y58.9000 Z-4.7500 F300.00
G2 X31.9000 Y58.0000 Z-4.7500 I0.0000 J-0.9000 F300.00
G1 X31.9000 Y28.0000 Z-4.7500 F300.00
G2 X31.0000 Y27.1000 Z-4.7500 I-0.9000 J-0.0000 F300.00
G1 X16.9000 Y27.1000 Z-4.7500 F300.00
G1 X16.9000 Y11.9000 Z-4.7500 F300.00
G1 X31.0000 Y11.9000 Z-4.7500 F300.00
G2 X31.9000 Y11.0000 Z-4.7500 I0.0000 J-0.9000 F300.00
G1 X31.9000 Y1.0000 Z-4.7500 F300.00
G2 X31.0000 Y0.1000 Z-4.7500 I-0.9000 J-0.0000 F300.00
G1 X1.0000 Y0.1000 Z-4.7500 F300.00
G2 X0.3636 Y0.3636 Z-4.7500 I-0.0000 J0.9000 F300.00
G1 X0.3636 Y0.3636 Z-5.0000 F60.00
G2 X0.1000 Y1.0000 Z-5.0000 I0.6364 J0.6364 F300.00
G1 X0.1000 Y32.1068 Z-5.0000 F300.00
G2 X10.1849 Y42.2324 Z-5.0000 I10.1272 J-0.0016 F300.00
G2 X12.3980 Y41.0290 Z-5.0000 I0.0340 J-2.5741 F300.00
G3 X19.5992 Y41.0400 Z-5.0000 I3.5976 J1.9789 F300.00
G3 X12.4198 Y45.0023 Z-5.0000 I-3.6018 J1.9593 F300.00
G2 X10.3206 Y43.7716 Z-5.0000 I-2.1964 J1.3407 F300.00
G2 X0.1010 Y53.8516 Z-5.0000 I-0.1005 J10.1187 F300.00
G1 X0.1000 Y58.0000 Z-5.0000 F300.00
G2 X1.0000 Y58.9000 Z-5.0000 I0.9000 J0.0000 F300.00
G1 X31.0000 Y58.9000 Z-5.0000 F300.00
G2 X31.9000 Y58.0000 Z-5.0000 I0.0000 J-0.9000 F300.00
G1 X31.9000 Y28.0000 Z-5.0000 F300.00
G2 X31.0000 Y27.1000 Z-5.0000 I-0.9000 J-0.0000 F300.00
G1 X16.9000 Y27.1000 Z-5.0000 F300.00
G1 X16.9000 Y11.9000 Z-5.0000 F300.00
G1 X31.0000 Y11.9000 Z-5.0000 F300.00
G2 X31.9000 Y11.0000 Z-5.0000 I0.0000 J-0.9000 F300.00
G1 X31.9000 Y1.0000 Z-5.0000 F300.00
G2 X31.0000 Y0.1000 Z-5.0000 I-0.9000 J-0.0000 F300.00
G1 X1.0000 Y0.1000 Z-5.0000 F300.00
G2 X0.3636 Y0.3636 Z-5.0000 I-0.0000 J0.9000 F300.00
G1 X0.3636 Y0.3636 Z-5.2500 F60.00
G2 X0.1000 Y1.0000 Z-5.2500 I0.6364 J0.6364 F300.00
G1 X0.1000 Y32.1068 Z-5.2500 F300.00
G2 X10.1849 Y42.2324 Z-5.2500 I10.1272 J-0.0016 F300.00
G2 X12.3980 Y41.0290 Z-5.2500 I0.0340 J-2.5741 F300.00
G3 X19.5992 Y41.0400 Z-5.2500 I3.5976 J1.9789 F300.00
G3 X12.4198 Y45.0023 Z-5.2500 I-3.6018 J1.9593 F300.00
G2 X10.3206 Y43.7716 Z-5.2500 I-2.1964 J1.3407 F300.00
G2 X0.1010 Y53.8516 Z-5.2500 I-0.1005 J10.1187 F300.00
G1 X0.1000 Y58.0000 Z-5.2500 F300.00
G2 X1.0000 Y58.9000 Z-5.2500 I0.9000 J0.0000 F300.00
G1 X31.0000 Y58.9000 Z-5.2500 F300.00
G2 X31.9000 Y58.0000 Z-5.2500 I0.0000 J-0.9000 F300.00
G1 X31.9000 Y28.0000 Z-5.2500 F300.00
G2 X31.0000 Y27.1000 Z-5.2500 I-0.9000 J-0.0000 F300.00
G1 X16.9000 Y27.1000 Z-5.2500 F300.00
G1 X16.9000 Y11.9000 Z-5.2500 F300.00
G1 X31.0000 Y11.9000 Z-5.2500 F300.00
G2 X31.9000 Y11.0000 Z-5.2500 I0.0000 J-0.9000 F300.00
G1 X31.9000 Y1.0000 Z-5.2500 F300.00
G2 X31.0000 Y0.1000 Z-5.2500 I-0.9000 J-0.0000 F300.00
G1 X1.0000 Y0.1000 Z-5.2500 F300.00
G2 X0.3636 Y0.3636 Z-5.2500 I-0.0000 J0.9000 F300.00
G1 X0.3636 Y0.3636 Z-5.5000 F60.00
G2 X0.1000 Y1.0000 Z-5.5000 I0.6364 J0.6364 F300.00
G1 X0.1000 Y32.1068 Z-5.5000 F300.00
G2 X10.1849 Y42.2324 Z-5.5000 I10.1272 J-0.0016 F300.00
G2 X12.3980 Y41.0290 Z-5.5000 I0.0340 J-2.5741 F300.00
G3 X19.5992 Y41.0400 Z-5.5000 I3.5976 J1.9789 F300.00
G3 X12.4198 Y45.0023 Z-5.5000 I-3.6018 J1.9593 F300.00
G2 X10.3206 Y43.7716 Z-5.5000 I-2.1964 J1.3407 F300.00
G2 X0.1010 Y53.8516 Z-5.5000 I-0.1005 J10.1187 F300.00
G1 X0.1000 Y58.0000 Z-5.5000 F300.00
G2 X1.0000 Y58.9000 Z-5.5000 I0.9000 J0.0000 F300.00
G1 X31.0000 Y58.9000 Z-5.5000 F300.00
G2 X31.9000 Y58.0000 Z-5.5000 I0.0000 J-0.9000 F300.00
G1 X31.9000 Y28.0000 Z-5.5000 F300.00
G2 X31.0000 Y27.1000 Z-5.5000 I-0.9000 J-0.0000 F300.00
G1 X16.9000 Y27.1000 Z-5.5000 F300.00
G1 X16.9000 Y11.9000 Z-5.5000 F300.00
G1 X31.0000 Y11.9000 Z-5.5000 F300.00
G2 X31.9000 Y11.0000 Z-5.5000 I0.0000 J-0.9000 F300.00
G1 X31.9000 Y1.0000 Z-5.5000 F300.00
G2 X31.0000 Y0.1000 Z-5.5000 I-0.9000 J-0.0000 F300.00
G1 X1.0000 Y0.1000 Z-5.5000 F300.00
G2 X0.3636 Y0.3636 Z-5.5000 I-0.0000 J0.9000 F300.00
G1 X0.3636 Y0.3636 Z-5.7500 F60.00
G2 X0.1000 Y1.0000 Z-5.7500 I0.6364 J0.6364 F300.00
G1 X0.1000 Y32.1068 Z-5.7500 F300.00
G2 X10.1849 Y42.2324 Z-5.7500 I10.1272 J-0.0016 F300.00
G2 X12.3980 Y41.0290 Z-5.7500 I0.0340 J-2.5741 F300.00
G3 X19.5992 Y41.0400 Z-5.7500 I3.5976 J1.9789 F300.00
G3 X12.4198 Y45.0023 Z-5.7500 I-3.6018 J1.9593 F300.00
G2 X10.3206 Y43.7716 Z-5.7500 I-2.1964 J1.3407 F300.00
G2 X0.1010 Y53.8516 Z-5.7500 I-0.1005 J10.1187 F300.00
G1 X0.1000 Y58.0000 Z-5.7500 F300.00
G2 X1.0000 Y58.9000 Z-5.7500 I0.9000 J0.0000 F300.00
G1 X31.0000 Y58.9000 Z-5.7500 F300.00
G2 X31.9000 Y58.0000 Z-5.7500 I0.0000 J-0.9000 F300.00
G1 X31.9000 Y28.0000 Z-5.7500 F300.00
G2 X31.0000 Y27.1000 Z-5.7500 I-0.9000 J-0.0000 F300.00
G1 X16.9000 Y27.1000 Z-5.7500 F300.00
G1 X16.9000 Y11.9000 Z-5.7500 F300.00
G1 X31.0000 Y11.9000 Z-5.7500 F300.00
G2 X31.9000 Y11.0000 Z-5.7500 I0.0000 J-0.9000 F300.00
G1 X31.9000 Y1.0000 Z-5.7500 F300.00
G2 X31.0000 Y0.1000 Z-5.7500 I-0.9000 J-0.0000 F300.00
G1 X1.0000 Y0.1000 Z-5.7500 F300.00
G2 X0.3636 Y0.3636 Z-5.7500 I-0.0000 J0.9000 F300.00
G1 X0.3636 Y0.3636 Z-6.0000 F60.00
G2 X0.1000 Y1.0000 Z-6.0000 I0.6364 J0.6364 F300.00
G1 X0.1000 Y32.1068 Z-6.0000 F300.00
G2 X10.1849 Y42.2324 Z-6.0000 I10.1272 J-0.0016 F300.00
G2 X12.3980 Y41.0290 Z-6.0000 I0.0340 J-2.5741 F300.00
G3 X19.5992 Y41.0400 Z-6.0000 I3.5976 J1.9789 F300.00
G3 X12.4198 Y45.0023 Z-6.0000 I-3.6018 J1.9593 F300.00
G2 X10.3206 Y43.7716 Z-6.0000 I-2.1964 J1.3407 F300.00
G2 X0.1010 Y53.8516 Z-6.0000 I-0.1005 J10.1187 F300.00
G1 X0.1000 Y58.0000 Z-6.0000 F300.00
G2 X1.0000 Y58.9000 Z-6.0000 I0.9000 J0.0000 F300.00
G1 X31.0000 Y58.9000 Z-6.0000 F300.00
G2 X31.9000 Y58.0000 Z-6.0000 I0.0000 J-0.9000 F300.00
G1 X31.9000 Y28.0000 Z-6.0000 F300.00
G2 X31.0000 Y27.1000 Z-6.0000 I-0.9000 J-0.0000 F300.00
G1 X16.9000 Y27.1000 Z-6.0000 F300.00
G1 X16.9000 Y11.9000 Z-6.0000 F300.00
G1 X31.0000 Y11.9000 Z-6.0000 F300.00
G2 X31.9000 Y11.0000 Z-6.0000 I0.0000 J-0.9000 F300.00
G1 X31.9000 Y1.0000 Z-6.0000 F300.00
G2 X31.0000 Y0.1000 Z-6.0000 I-0.9000 J-0.0000 F300.00
G1 X1.0000 Y0.1000 Z-6.0000 F300.00
G2 X0.3636 Y0.3636 Z-6.0000 I-0.0000 J0.9000 F300.00
G1 X0.3636 Y0.3636 Z-6.2500 F60.00
G2 X0.1000 Y1.0000 Z-6.2500 I0.6364 J0.6364 F300.00
G1 X0.1000 Y32.1068 Z-6.2500 F300.00
G2 X10.1849 Y42.2324 Z-6.2500 I10.1272 J-0.0016 F300.00
G2 X12.3980 Y41.0290 Z-6.2500 I0.0340 J-2.5741 F300.00
G3 X19.5992 Y41.0400 Z-6.2500 I3.5976 J1.9789 F300.00
G3 X12.4198 Y45.0023 Z-6.2500 I-3.6018 J1.9593 F300.00
G2 X10.3206 Y43.7716 Z-6.2500 I-2.1964 J1.3407 F300.00
G2 X0.1010 Y53.8516 Z-6.2500 I-0.1005 J10.1187 F300.00
G1 X0.1000 Y58.0000 Z-6.2500 F300.00
G2 X1.0000 Y58.9000 Z-6.2500 I0.9000 J0.0000 F300.00
G1 X31.0000 Y58.9000 Z-6.2500 F300.00
G2 X31.9000 Y58.0000 Z-6.2500 I0.0000 J-0.9000 F300.00
G1 X31.9000 Y28.0000 Z-6.2500 F300.00
G2 X31.0000 Y27.1000 Z-6.2500 I-0.9000 J-0.0000 F300.00
G1 X16.9000 Y27.1000 Z-6.2500 F300.00
G1 X16.9000 Y11.9000 Z-6.2500 F300.00
G1 X31.0000 Y11.9000 Z-6.2500 F300.00
G2 X31.9000 Y11.0000 Z-6.2500 I0.0000 J-0.9000 F300.00
G1 X31.9000 Y1.0000 Z-6.2500 F300.00
G2 X31.0000 Y0.1000 Z-6.2500 I-0.9000 J-0.0000 F300.00
G1 X1.0000 Y0.1000 Z-6.2500 F300.00
G2 X0.3636 Y0.3636 Z-6.2500 I-0.0000 J0.9000 F300.00
G1 X0.3636 Y0.3636 Z-6.5000 F60.00
G2 X0.1000 Y1.0000 Z-6.5000 I0.6364 J0.6364 F300.00
G1 X0.1000 Y32.1068 Z-6.5000 F300.00
G2 X10.1849 Y42.2324 Z-6.5000 I10.1272 J-0.0016 F300.00
G2 X12.3980 Y41.0290 Z-6.5000 I0.0340 J-2.5741 F300.00
G3 X19.5992 Y41.0400 Z-6.5000 I3.5976 J1.9789 F300.00
G3 X12.4198 Y45.0023 Z-6.5000 I-3.6018 J1.9593 F300.00
G2 X10.3206 Y43.7716 Z-6.5000 I-2.1964 J1.3407 F300.00
G2 X0.1010 Y53.8516 Z-6.5000 I-0.1005 J10.1187 F300.00
G1 X0.1000 Y58.0000 Z-6.5000 F300.00
G2 X1.0000 Y58.9000 Z-6.5000 I0.9000 J0.0000 F300.00
G1 X31.0000 Y58.9000 Z-6.5000 F300.00
G2 X31.9000 Y58.0000 Z-6.5000 I0.0000 J-0.9000 F300.00
G1 X31.9000 Y28.0000 Z-6.5000 F300.00
G2 X31.0000 Y27.1000 Z-6.5000 I-0.9000 J-0.0000 F300.00
G1 X16.9000 Y27.1000 Z-6.5000 F300.00
G1 X16.9000 Y11.9000 Z-6.5000 F300.00
G1 X31.0000 Y11.9000 Z-6.5000 F300.00
G2 X31.9000 Y11.0000 Z-6.5000 I0.0000 J-0.9000 F300.00
G1 X31.9000 Y1.0000 Z-6.5000 F300.00
G2 X31.0000 Y0.1000 Z-6.5000 I-0.9000 J-0.0000 F300.00
G1 X1.0000 Y0.1000 Z-6.5000 F300.00
G2 X0.3636 Y0.3636 Z-6.5000 I-0.0000 J0.9000 F300.00
G0 Z5.0000
(finish operation: Contour)
(begin postamble)
M5
G17 G90
; M2
